X: 486
T: A Winston Tune
R: jig
M: 6/8
K: Gmajor
|:GFG B2d|gba gfe|ded B2G|FGA cBA|
GFG B2d|gba gfe|def dfa|1 g3 g3:|2 g3 gdc||
|:B3 d3|c3 e3|ded B2G|FGA cBA|
B3 d3|c3 e3|def dfa|1 g3 gdc:|2 g3g2||

